rospo-icon-theme-classic-common/24x24/apps/com.github.bartzaalberg.php-tester.svg

<svg height="24" width="24" xmlns="http://www.w3.org/2000/svg"><rect fill="#465489" height="20" rx="1" transform="matrix(0 -1 -1 0 0 0)" width="20" x="-22" y="-22"/><path d="m3 2c-.554 0-1 .446-1 1v .5c0-.554.446-1 1-1h18c .554 0 1 .446 1 1v-.5c0-.554-.446-1-1-1z" fill="#fff" opacity=".1"/><path d="m3 22.5c-.554 0-1-.446-1-1v-.5c0 .554.446 1 1 1h18c .554 0 1-.446 1-1v .5c0 .554-.446 1-1 1z" opacity=".2"/><path d="m11.636719 8.4782496c-.306 1.5730004-1.010407 4.4368124-1.316407 6.0078124h1.021485c.176-.902.551609-2.294547.724609-3.185547.348 0 .67686-.01205 1.00586.002.323.014.445625.171282.390625.488282-.075.434-.364266 1.364875-.447266 1.796875-.057.298-.113828.596203-.173828.908203.334 0 .653609.000093.974609-.0039.026-.001.06622-.04131.07422-.07031.029-.112.04736-.226844.06836-.339844.123-.642.45536-1.783734.56836-2.427734.1-.568-.135407-.928875-.691406-1.046875-.263-.056-.537594-.06122-.808594-.07422-.266-.011-.5345-.002-.8125-.002.082-.423.362359-1.6347344.443359-2.0527344h-1.021484zm-4.8886721 2.0527344c-.032 0-.062656.0048-.097656.0078-.305 1.572002-.709625 4.336204-1.015625 5.908204h1.0292969c.077-.394.2542187-1.475375.3242187-1.859375.014-.075.043281-.09475.1132813-.09375.337.001.6766719.0091 1.0136719-.0059.213-.01.4287656-.03789.6347656-.08789.774-.189 1.5557497-1.512641 1.4687497-2.681641-.044-.598948-.38175-.972182-.96875-1.115182-.178-.043-.3648281-.06636-.5488281-.06836-.651-.009-1.302125-.0039-1.953125-.0039zm8.8007811 0c-.032 0-.06266.0048-.09766.0078-.304992 1.572014-.709621 4.336216-1.015621 5.908216h1.029297c.077-.394.254218-1.475375.324218-1.859375.014-.075.04328-.09475.113282-.09375.337.001.676672.0091 1.013672-.0059.213-.01.428765-.03789.634765-.08789.774-.189 1.55575-1.512641 1.46875-2.681641-.044-.599-.38175-.972234-.96875-1.115234-.178-.043-.364828-.06636-.548828-.06836-.651-.009-1.302125-.0039-1.953125-.0039zm-8.0078124.722656c.389.023.7733906.02027 1.1503906.07227.3300001.045.467125.237312.453125.570312-.009.203-.044562.709297-.1015624.904297-.1240001.434-.4310469.675703-.8730469.720703-.33.034-.6625313.03092-1.0195313.04492.133-.681.258625-1.633498.390625-2.3125zm8.8007814 0c .389.023.77339.02027 1.150391.07227.329999.045.467124.237312.453124.570312-.009.203-.04456.709297-.101562.904297-.124.434-.431047.675703-.873047.720703-.33.034-.662531.03092-1.019531.04492.133-.681.258625-1.633498.390625-2.3125z" fill-rule="evenodd" opacity=".2"/><path d="m11.636719 7.9785156c-.306 1.573-1.010407 4.4368124-1.316407 6.0078124h1.021485c.176-.902.551609-2.294547.724609-3.185547.348 0 .67686-.012047 1.00586.001953.323.014.445625.171282.390625.488282-.075.434-.364266 1.364875-.447266 1.796875-.057.298-.113828.596203-.173828.908203.334 0 .653609.000093.974609-.003906.026-.001.066219-.041313.074219-.070313.029-.112.047359-.226844.068359-.339844.123-.642.45536-1.783734.56836-2.427734.1-.568-.135407-.928875-.691406-1.046875-.263-.056-.537594-.061219-.808594-.074219-.266-.011-.5345-.001953-.8125-.001953.082-.423.362359-1.6347344.443359-2.0527344zm-4.8886721 2.0527344c-.032 0-.0626563.004812-.0976563.007812-.305 1.572002-.709625 4.336204-1.015625 5.908204h1.0292969c.077-.394.2542187-1.475375.3242187-1.859375.0140001-.075.043281-.09475.1132813-.09375.337.001.6766719.00914 1.0136719-.00586.213-.01.4287656-.03789.6347656-.08789.774-.189 1.55575-1.512641 1.46875-2.681641-.044-.599-.38175-.972234-.96875-1.115234-.178-.043-.3648281-.06636-.5488281-.06836-.651-.009-1.302125-.003906-1.953125-.003906zm8.8007811 0c-.032 0-.062656.004812-.097656.007812-.304996 1.572002-.709625 4.336204-1.015625 5.908204h1.029297c.077-.394.254218-1.475375.324218-1.859375.014-.075.043281-.09475.113282-.09375.337.001.676672.00914 1.013672-.00586.213-.01.428765-.03789.634765-.08789.774-.189 1.55575-1.512641 1.46875-2.681641-.044-.599-.38175-.972234-.96875-1.115234-.178-.043-.364828-.06636-.548828-.06836-.651-.009-1.302125-.003906-1.953125-.003906zm-8.0078124.722656c.389.023.7733906.020266 1.1503906.072266.3300001.045.467125.237312.453125.570312-.009.203-.0445621.709297-.1015624.904297-.1240001.434-.4310469.675703-.8730469.720703-.33.034-.6625313.030922-1.0195313.044922.133-.681.258625-1.633498.390625-2.3125zm8.8007814 0c .389.023.77339.020266 1.150391.072266.329999.045.467124.237312.453124.570312-.009.203-.04456.709297-.101562.904297-.124.434-.431047.675703-.873047.720703-.33.034-.662531.030922-1.019531.044922.133-.681.258625-1.633498.390625-2.3125z" fill="#fff" fill-rule="evenodd"/></svg>

<svg xmlns="http://www.w3.org/2000/svg" width="24" height="24" version="1">
 <rect style="fill:#465489" width="20" height="20" x="-22" y="-22" rx="1" ry="1" transform="matrix(0,-1,-1,0,0,0)"/>
 <path style="opacity:0.1;fill:#ffffff" d="M 3,2 C 2.446,2 2,2.446 2,3 l 0,0.5 c 0,-0.554 0.446,-1 1,-1 l 18,0 c 0.554,0 1,0.446 1,1 L 22,3 C 22,2.446 21.554,2 21,2 L 3,2 Z"/>
 <path style="opacity:0.2" d="m 3,22.5 c -0.554,0 -1,-0.446 -1,-1 L 2,21 c 0,0.554 0.446,1 1,1 l 18,0 c 0.554,0 1,-0.446 1,-1 l 0,0.5 c 0,0.554 -0.446,1 -1,1 l -18,0 z"/>
 <path d="m 11.636719,8.4782496 c -0.306,1.5730004 -1.010407,4.4368124 -1.316407,6.0078124 l 1.021485,0 c 0.176,-0.902 0.551609,-2.294547 0.724609,-3.185547 0.348,0 0.67686,-0.01205 1.00586,0.002 0.323,0.014 0.445625,0.171282 0.390625,0.488282 -0.075,0.434 -0.364266,1.364875 -0.447266,1.796875 -0.057,0.298 -0.113828,0.596203 -0.173828,0.908203 0.334,0 0.653609,9.3e-5 0.974609,-0.0039 0.026,-10e-4 0.06622,-0.04131 0.07422,-0.07031 0.029,-0.112 0.04736,-0.226844 0.06836,-0.339844 0.123,-0.642 0.45536,-1.783734 0.56836,-2.427734 0.1,-0.568 -0.135407,-0.928875 -0.691406,-1.046875 -0.263,-0.056 -0.537594,-0.06122 -0.808594,-0.07422 -0.266,-0.011 -0.5345,-0.002 -0.8125,-0.002 0.082,-0.423 0.362359,-1.6347344 0.443359,-2.0527344 l -1.021484,0 z M 6.7480469,10.530984 c -0.032,0 -0.062656,0.0048 -0.097656,0.0078 -0.305,1.572002 -0.709625,4.336204 -1.015625,5.908204 l 1.0292969,0 c 0.077,-0.394 0.2542187,-1.475375 0.3242187,-1.859375 0.014,-0.075 0.043281,-0.09475 0.1132813,-0.09375 0.337,0.001 0.6766719,0.0091 1.0136719,-0.0059 0.213,-0.01 0.4287656,-0.03789 0.6347656,-0.08789 0.774,-0.189 1.5557497,-1.512641 1.4687497,-2.681641 C 10.17475,11.119484 9.837,10.74625 9.25,10.60325 9.072,10.56025 8.8851719,10.53689 8.7011719,10.53489 c -0.651,-0.009 -1.302125,-0.0039 -1.953125,-0.0039 z m 8.8007811,0 c -0.032,0 -0.06266,0.0048 -0.09766,0.0078 C 15.146176,12.110798 14.741547,14.875 14.435547,16.447 l 1.029297,0 c 0.077,-0.394 0.254218,-1.475375 0.324218,-1.859375 0.014,-0.075 0.04328,-0.09475 0.113282,-0.09375 0.337,0.001 0.676672,0.0091 1.013672,-0.0059 0.213,-0.01 0.428765,-0.03789 0.634765,-0.08789 0.774,-0.189 1.55575,-1.512641 1.46875,-2.681641 -0.044,-0.599 -0.38175,-0.972234 -0.96875,-1.115234 -0.178,-0.043 -0.364828,-0.06636 -0.548828,-0.06836 -0.651,-0.009 -1.302125,-0.0039 -1.953125,-0.0039 z M 7.5410156,11.25364 c 0.389,0.023 0.7733906,0.02027 1.1503906,0.07227 0.3300001,0.045 0.467125,0.237312 0.453125,0.570312 -0.009,0.203 -0.044562,0.709297 -0.1015624,0.904297 -0.1240001,0.434 -0.4310469,0.675703 -0.8730469,0.720703 -0.33,0.034 -0.6625313,0.03092 -1.0195313,0.04492 0.133,-0.681 0.258625,-1.633498 0.390625,-2.3125 z m 8.8007814,0 c 0.389,0.023 0.77339,0.02027 1.150391,0.07227 0.329999,0.045 0.467124,0.237312 0.453124,0.570312 -0.009,0.203 -0.04456,0.709297 -0.101562,0.904297 -0.124,0.434 -0.431047,0.675703 -0.873047,0.720703 -0.33,0.034 -0.662531,0.03092 -1.019531,0.04492 0.133,-0.681 0.258625,-1.633498 0.390625,-2.3125 z" style="opacity:0.2;isolation:isolate;fill-rule:evenodd"/>
 <path style="isolation:isolate;fill:#ffffff;fill-rule:evenodd" d="M 11.636719 7.9785156 C 11.330719 9.5515156 10.626312 12.415328 10.320312 13.986328 L 11.341797 13.986328 C 11.517797 13.084328 11.893406 11.691781 12.066406 10.800781 C 12.414406 10.800781 12.743266 10.788734 13.072266 10.802734 C 13.395266 10.816734 13.517891 10.974016 13.462891 11.291016 C 13.387891 11.725016 13.098625 12.655891 13.015625 13.087891 C 12.958625 13.385891 12.901797 13.684094 12.841797 13.996094 C 13.175797 13.996094 13.495406 13.996187 13.816406 13.992188 C 13.842406 13.991188 13.882625 13.950875 13.890625 13.921875 C 13.919625 13.809875 13.937984 13.695031 13.958984 13.582031 C 14.081984 12.940031 14.414344 11.798297 14.527344 11.154297 C 14.627344 10.586297 14.391937 10.225422 13.835938 10.107422 C 13.572938 10.051422 13.298344 10.046203 13.027344 10.033203 C 12.761344 10.022203 12.492844 10.03125 12.214844 10.03125 C 12.296844 9.60825 12.577203 8.3965156 12.658203 7.9785156 L 11.636719 7.9785156 z M 6.7480469 10.03125 C 6.7160469 10.03125 6.6853906 10.036062 6.6503906 10.039062 C 6.3453906 11.611064 5.9407656 14.375266 5.6347656 15.947266 L 6.6640625 15.947266 C 6.7410625 15.553266 6.9182812 14.471891 6.9882812 14.087891 C 7.0022813 14.012891 7.0315622 13.993141 7.1015625 13.994141 C 7.4385625 13.995141 7.7782344 14.003281 8.1152344 13.988281 C 8.3282344 13.978281 8.544 13.950391 8.75 13.900391 C 9.524 13.711391 10.30575 12.38775 10.21875 11.21875 C 10.17475 10.61975 9.837 10.246516 9.25 10.103516 C 9.072 10.060516 8.8851719 10.037156 8.7011719 10.035156 C 8.0501719 10.026156 7.3990469 10.03125 6.7480469 10.03125 z M 15.548828 10.03125 C 15.516828 10.03125 15.486172 10.036062 15.451172 10.039062 C 15.146176 11.611064 14.741547 14.375266 14.435547 15.947266 L 15.464844 15.947266 C 15.541844 15.553266 15.719062 14.471891 15.789062 14.087891 C 15.803062 14.012891 15.832343 13.993141 15.902344 13.994141 C 16.239344 13.995141 16.579016 14.003281 16.916016 13.988281 C 17.129016 13.978281 17.344781 13.950391 17.550781 13.900391 C 18.324781 13.711391 19.106531 12.38775 19.019531 11.21875 C 18.975531 10.61975 18.637781 10.246516 18.050781 10.103516 C 17.872781 10.060516 17.685953 10.037156 17.501953 10.035156 C 16.850953 10.026156 16.199828 10.03125 15.548828 10.03125 z M 7.5410156 10.753906 C 7.9300156 10.776906 8.3144062 10.774172 8.6914062 10.826172 C 9.0214063 10.871172 9.1585312 11.063484 9.1445312 11.396484 C 9.1355312 11.599484 9.0999691 12.105781 9.0429688 12.300781 C 8.9189687 12.734781 8.6119219 12.976484 8.1699219 13.021484 C 7.8399219 13.055484 7.5073906 13.052406 7.1503906 13.066406 C 7.2833906 12.385406 7.4090156 11.432908 7.5410156 10.753906 z M 16.341797 10.753906 C 16.730797 10.776906 17.115187 10.774172 17.492188 10.826172 C 17.822187 10.871172 17.959312 11.063484 17.945312 11.396484 C 17.936312 11.599484 17.900752 12.105781 17.84375 12.300781 C 17.71975 12.734781 17.412703 12.976484 16.970703 13.021484 C 16.640703 13.055484 16.308172 13.052406 15.951172 13.066406 C 16.084172 12.385406 16.209797 11.432908 16.341797 10.753906 z"/>
</svg>
